public/avatar/item2/14.svg

<svg xmlns:xlink="http://www.w3.org/1999/xlink" height="99.2" width="82.2" xmlns="http://www.w3.org/2000/svg"><use height="18.35" transform="translate(12.35 66.05)" width="36.85" xlink:href="#a"/><defs><g id="a"><path d="M-17.2 20.55q1.7 3.75 4.65 7.5 5.85 7.5 12.1 7.5t12-7.5q2.9-3.75 4.5-7.5" fill="none" stroke="#000" stroke-linecap="round" stroke-linejoin="round" transform="translate(18.65 -19.3)"/><path d="M17.45 21.8q0 1.75-1.75 1.75t-1.75-1.75q0-1.75 1.75-1.75t1.75 1.75" fill="red" fill-rule="evenodd" transform="translate(18.65 -19.3)"/><path d="M36.1 2.5q0 1.75-1.75 1.75T32.6 2.5q0-1.75 1.75-1.75T36.1 2.5Z" fill="none" stroke="#000" stroke-linecap="round" stroke-linejoin="round" stroke-width="1.5"/><path d="M17.3 21.55q0 1.75-1.75 1.75t-1.75-1.75q0-1.75 1.75-1.75t1.75 1.75" fill-rule="evenodd" transform="translate(18.65 -19.3)"/><path d="M-2.7 34.5q0 1.75-1.75 1.75T-6.2 34.5q0-1.75 1.75-1.75t1.75 1.75" fill="#ffd400" fill-rule="evenodd" transform="translate(18.65 -19.3)"/><path d="M15.95 15.2q0 1.75-1.75 1.75t-1.75-1.75q0-1.75 1.75-1.75t1.75 1.75Z" fill="none" stroke="#000" stroke-linecap="round" stroke-linejoin="round" stroke-width="1.5"/><path d="M-6.2 32.5q0 1.75-1.75 1.75T-9.7 32.5q0-1.75 1.75-1.75t1.75 1.75" fill="red" fill-rule="evenodd" transform="translate(18.65 -19.3)"/><path d="M12.45 13.2q0 1.75-1.75 1.75T8.95 13.2q0-1.75 1.75-1.75t1.75 1.75Z" fill="none" stroke="#000" stroke-linecap="round" stroke-linejoin="round" stroke-width="1.5"/><path d="M-9.05 30.15q0 1.75-1.75 1.75t-1.75-1.75q0-1.75 1.75-1.75t1.75 1.75" fill="#ffd400" fill-rule="evenodd" transform="translate(18.65 -19.3)"/><path d="M9.6 10.85q0 1.75-1.75 1.75T6.1 10.85q0-1.75 1.75-1.75t1.75 1.75Z" fill="none" stroke="#000" stroke-linecap="round" stroke-linejoin="round" stroke-width="1.5"/><path d="M-11.7 27.8q0 1.75-1.75 1.75t-1.75-1.75q0-1.75 1.75-1.75t1.75 1.75" fill="red" fill-rule="evenodd" transform="translate(18.65 -19.3)"/><path d="M6.95 8.5q0 1.75-1.75 1.75T3.45 8.5q0-1.75 1.75-1.75T6.95 8.5Z" fill="none" stroke="#000" stroke-linecap="round" stroke-linejoin="round" stroke-width="1.5"/><path d="M6.65 33.8q0 1.75-1.75 1.75T3.15 33.8q0-1.75 1.75-1.75t1.75 1.75" fill="red" fill-rule="evenodd" transform="translate(18.65 -19.3)"/><path d="M25.3 14.5q0 1.75-1.75 1.75T21.8 14.5q0-1.75 1.75-1.75t1.75 1.75Z" fill="none" stroke="#000" stroke-linecap="round" stroke-linejoin="round" stroke-width="1.5"/><path d="M9.65 31.8q0 1.75-1.75 1.75T6.15 31.8q0-1.75 1.75-1.75t1.75 1.75" fill="#ffd400" fill-rule="evenodd" transform="translate(18.65 -19.3)"/><path d="M28.3 12.5q0 1.75-1.75 1.75T24.8 12.5q0-1.75 1.75-1.75t1.75 1.75Z" fill="none" stroke="#000" stroke-linecap="round" stroke-linejoin="round" stroke-width="1.5"/><path d="M11.95 29.8q0 1.75-1.75 1.75T8.45 29.8q0-1.75 1.75-1.75t1.75 1.75" fill="red" fill-rule="evenodd" transform="translate(18.65 -19.3)"/><path d="M30.6 10.5q0 1.75-1.75 1.75T27.1 10.5q0-1.75 1.75-1.75t1.75 1.75Z" fill="none" stroke="#000" stroke-linecap="round" stroke-linejoin="round" stroke-width="1.5"/><path d="M13.95 27.15q0 1.75-1.75 1.75t-1.75-1.75q0-1.75 1.75-1.75t1.75 1.75" fill="#ffd400" fill-rule="evenodd" transform="translate(18.65 -19.3)"/><path d="M32.6 7.85q0 1.75-1.75 1.75T29.1 7.85q0-1.75 1.75-1.75t1.75 1.75Z" fill="none" stroke="#000" stroke-linecap="round" stroke-linejoin="round" stroke-width="1.5"/><path d="M-.8 33.4q1.75 0 1.75 1.75T-.8 36.9q-1.75 0-1.75-1.75T-.8 33.4" fill="red" fill-rule="evenodd" transform="translate(18.65 -19.3)"/><path d="M17.85 14.1q1.75 0 1.75 1.75t-1.75 1.75q-1.75 0-1.75-1.75t1.75-1.75Z" fill="none" stroke="#000" stroke-linecap="round" stroke-linejoin="round" stroke-width="1.5"/><path d="M3.95 34.5q0 1.75-1.75 1.75T.45 34.5q0-1.75 1.75-1.75t1.75 1.75" fill="#ffd400" fill-rule="evenodd" transform="translate(18.65 -19.3)"/><path d="M22.6 15.2q0 1.75-1.75 1.75T19.1 15.2q0-1.75 1.75-1.75t1.75 1.75Z" fill="none" stroke="#000" stroke-linecap="round" stroke-linejoin="round" stroke-width="1.5"/><path d="M-2.7 34.5q0 1.75-1.75 1.75T-6.2 34.5q0-1.75 1.75-1.75t1.75 1.75" fill="#009c02" fill-rule="evenodd" transform="translate(18.65 -19.3)"/><path d="M-6.2 32.5q0 1.75-1.75 1.75T-9.7 32.5q0-1.75 1.75-1.75t1.75 1.75" fill="#ffd400" fill-rule="evenodd" transform="translate(18.65 -19.3)"/><path d="M-9.05 30.15q0 1.75-1.75 1.75t-1.75-1.75q0-1.75 1.75-1.75t1.75 1.75" fill="red" fill-rule="evenodd" transform="translate(18.65 -19.3)"/><path d="M-14.4 22.05q0 1.75-1.75 1.75t-1.75-1.75q0-1.75 1.75-1.75t1.75 1.75" fill="#ffd400" fill-rule="evenodd" transform="translate(18.65 -19.3)"/><path d="M4.25 2.75q0 1.75-1.75 1.75T.75 2.75Q.75 1 2.5 1t1.75 1.75Z" fill="none" stroke="#000" stroke-linecap="round" stroke-linejoin="round" stroke-width="1.5"/><path d="M-13.4 23.1q0 1.75-1.75 1.75t-1.75-1.75q0-1.75 1.75-1.75t1.75 1.75" fill="red" fill-rule="evenodd" transform="translate(18.65 -19.3)"/><path d="M5.25 3.8q0 1.75-1.75 1.75T1.75 3.8q0-1.75 1.75-1.75T5.25 3.8Z" fill="none" stroke="#000" stroke-linecap="round" stroke-linejoin="round" stroke-width="1.5"/><path d="M-12.25 25.25Q-12.25 27-14 27t-1.75-1.75q0-1.75 1.75-1.75t1.75 1.75" fill="#ffd400" fill-rule="evenodd" transform="translate(18.65 -19.3)"/><path d="M6.4 5.95q0 1.75-1.75 1.75T2.9 5.95q0-1.75 1.75-1.75T6.4 5.95Z" fill="none" stroke="#000" stroke-linecap="round" stroke-linejoin="round" stroke-width="1.5"/><path d="M-14.4 22.05q0 1.75-1.75 1.75t-1.75-1.75q0-1.75 1.75-1.75t1.75 1.75" fill="#009c02" fill-rule="evenodd" transform="translate(18.65 -19.3)"/><path d="M-13.4 23.1q0 1.75-1.75 1.75t-1.75-1.75q0-1.75 1.75-1.75t1.75 1.75" fill="red" fill-rule="evenodd" transform="translate(18.65 -19.3)"/><path d="M-12.25 25.25Q-12.25 27-14 27t-1.75-1.75q0-1.75 1.75-1.75t1.75 1.75" fill="#ffd400" fill-rule="evenodd" transform="translate(18.65 -19.3)"/><path d="M-11.7 27.8q0 1.75-1.75 1.75t-1.75-1.75q0-1.75 1.75-1.75t1.75 1.75m18.35 6q0 1.75-1.75 1.75T3.15 33.8q0-1.75 1.75-1.75t1.75 1.75" fill="#009c02" fill-rule="evenodd" transform="translate(18.65 -19.3)"/><path d="M9.65 31.8q0 1.75-1.75 1.75T6.15 31.8q0-1.75 1.75-1.75t1.75 1.75" fill="red" fill-rule="evenodd" transform="translate(18.65 -19.3)"/><path d="M11.95 29.8q0 1.75-1.75 1.75T8.45 29.8q0-1.75 1.75-1.75t1.75 1.75m4.5-7q0 1.75-1.75 1.75t-1.75-1.75q0-1.75 1.75-1.75t1.75 1.75" fill="#ffd400" fill-rule="evenodd" transform="translate(18.65 -19.3)"/><path d="M35.1 3.5q0 1.75-1.75 1.75T31.6 3.5q0-1.75 1.75-1.75T35.1 3.5Z" fill="none" stroke="#000" stroke-linecap="round" stroke-linejoin="round" stroke-width="1.5"/><path d="M15.15 24.65q0 1.75-1.75 1.75t-1.75-1.75q0-1.75 1.75-1.75t1.75 1.75" fill="red" fill-rule="evenodd" transform="translate(18.65 -19.3)"/><path d="M33.8 5.35q0 1.75-1.75 1.75T30.3 5.35q0-1.75 1.75-1.75t1.75 1.75Z" fill="none" stroke="#000" stroke-linecap="round" stroke-linejoin="round" stroke-width="1.5"/><path d="M17.45 21.8q0 1.75-1.75 1.75t-1.75-1.75q0-1.75 1.75-1.75t1.75 1.75" fill="#009c02" fill-rule="evenodd" transform="translate(18.65 -19.3)"/><path d="M16.45 22.8q0 1.75-1.75 1.75t-1.75-1.75q0-1.75 1.75-1.75t1.75 1.75" fill="#ffd400" fill-rule="evenodd" transform="translate(18.65 -19.3)"/><path d="M15.15 24.65q0 1.75-1.75 1.75t-1.75-1.75q0-1.75 1.75-1.75t1.75 1.75" fill="red" fill-rule="evenodd" transform="translate(18.65 -19.3)"/><path d="M13.95 27.15q0 1.75-1.75 1.75t-1.75-1.75q0-1.75 1.75-1.75t1.75 1.75" fill="#009c02" fill-rule="evenodd" transform="translate(18.65 -19.3)"/><path d="M-.8 33.4q1.75 0 1.75 1.75T-.8 36.9q-1.75 0-1.75-1.75T-.8 33.4" fill="red" fill-rule="evenodd" transform="translate(18.65 -19.3)"/><path d="M3.95 34.5q0 1.75-1.75 1.75T.45 34.5q0-1.75 1.75-1.75t1.75 1.75" fill="#ffd400" fill-rule="evenodd" transform="translate(18.65 -19.3)"/></g></defs></svg>

<?xml version="1.0" encoding="UTF-8" standalone="no"?>
<svg xmlns:xlink="http://www.w3.org/1999/xlink" height="99.2px" width="82.2px" xmlns="http://www.w3.org/2000/svg">
  <g transform="matrix(1.0, 0.0, 0.0, 1.0, 31.0, 46.75)">
    <use height="18.35" transform="matrix(1.0, 0.0, 0.0, 1.0, -18.65, 19.3)" width="36.85" xlink:href="#shape0"/>
  </g>
  <defs>
    <g id="shape0" transform="matrix(1.0, 0.0, 0.0, 1.0, 18.65, -19.3)">
      <path d="M-17.2 20.55 Q-15.5 24.3 -12.55 28.05 -6.7 35.55 -0.45 35.55 5.8 35.55 11.55 28.05 14.45 24.3 16.05 20.55" fill="none" stroke="#000000" stroke-linecap="round" stroke-linejoin="round" stroke-width="1.0"/>
      <path d="M17.45 21.8 Q17.45 23.55 15.7 23.55 13.95 23.55 13.95 21.8 13.95 20.05 15.7 20.05 17.45 20.05 17.45 21.8" fill="#ff0000" fill-rule="evenodd" stroke="none"/>
      <path d="M17.45 21.8 Q17.45 23.55 15.7 23.55 13.95 23.55 13.95 21.8 13.95 20.05 15.7 20.05 17.45 20.05 17.45 21.8 Z" fill="none" stroke="#000000" stroke-linecap="round" stroke-linejoin="round" stroke-width="1.5"/>
      <path d="M17.3 21.55 Q17.3 23.3 15.55 23.3 13.8 23.3 13.8 21.55 13.8 19.8 15.55 19.8 17.3 19.8 17.3 21.55" fill="#000000" fill-rule="evenodd" stroke="none"/>
      <path d="M-2.7 34.5 Q-2.7 36.25 -4.45 36.25 -6.2 36.25 -6.2 34.5 -6.2 32.75 -4.45 32.75 -2.7 32.75 -2.7 34.5" fill="#ffd400" fill-rule="evenodd" stroke="none"/>
      <path d="M-2.7 34.5 Q-2.7 36.25 -4.45 36.25 -6.2 36.25 -6.2 34.5 -6.2 32.75 -4.45 32.75 -2.7 32.75 -2.7 34.5 Z" fill="none" stroke="#000000" stroke-linecap="round" stroke-linejoin="round" stroke-width="1.5"/>
      <path d="M-6.2 32.5 Q-6.2 34.25 -7.95 34.25 -9.7 34.25 -9.7 32.5 -9.7 30.75 -7.95 30.75 -6.2 30.75 -6.2 32.5" fill="#ff0000" fill-rule="evenodd" stroke="none"/>
      <path d="M-6.2 32.5 Q-6.2 34.25 -7.95 34.25 -9.7 34.25 -9.7 32.5 -9.7 30.75 -7.95 30.75 -6.2 30.75 -6.2 32.5 Z" fill="none" stroke="#000000" stroke-linecap="round" stroke-linejoin="round" stroke-width="1.5"/>
      <path d="M-9.05 30.15 Q-9.05 31.9 -10.8 31.9 -12.55 31.9 -12.55 30.15 -12.55 28.4 -10.8 28.4 -9.05 28.4 -9.05 30.15" fill="#ffd400" fill-rule="evenodd" stroke="none"/>
      <path d="M-9.05 30.15 Q-9.05 31.9 -10.8 31.9 -12.55 31.9 -12.55 30.15 -12.55 28.4 -10.8 28.4 -9.05 28.4 -9.05 30.15 Z" fill="none" stroke="#000000" stroke-linecap="round" stroke-linejoin="round" stroke-width="1.5"/>
      <path d="M-11.7 27.8 Q-11.7 29.55 -13.45 29.55 -15.2 29.55 -15.2 27.8 -15.2 26.05 -13.45 26.05 -11.7 26.05 -11.7 27.8" fill="#ff0000" fill-rule="evenodd" stroke="none"/>
      <path d="M-11.7 27.8 Q-11.7 29.55 -13.45 29.55 -15.2 29.55 -15.2 27.8 -15.2 26.05 -13.45 26.05 -11.7 26.05 -11.7 27.8 Z" fill="none" stroke="#000000" stroke-linecap="round" stroke-linejoin="round" stroke-width="1.5"/>
      <path d="M6.65 33.8 Q6.65 35.55 4.9 35.55 3.15 35.55 3.15 33.8 3.15 32.05 4.9 32.05 6.65 32.05 6.65 33.8" fill="#ff0000" fill-rule="evenodd" stroke="none"/>
      <path d="M6.65 33.8 Q6.65 35.55 4.9 35.55 3.15 35.55 3.15 33.8 3.15 32.05 4.9 32.05 6.65 32.05 6.65 33.8 Z" fill="none" stroke="#000000" stroke-linecap="round" stroke-linejoin="round" stroke-width="1.5"/>
      <path d="M9.65 31.8 Q9.65 33.55 7.9 33.55 6.15 33.55 6.15 31.8 6.15 30.05 7.9 30.05 9.65 30.05 9.65 31.8" fill="#ffd400" fill-rule="evenodd" stroke="none"/>
      <path d="M9.65 31.8 Q9.65 33.55 7.9 33.55 6.15 33.55 6.15 31.8 6.15 30.05 7.9 30.05 9.65 30.05 9.65 31.8 Z" fill="none" stroke="#000000" stroke-linecap="round" stroke-linejoin="round" stroke-width="1.5"/>
      <path d="M11.95 29.8 Q11.95 31.55 10.2 31.55 8.45 31.55 8.45 29.8 8.45 28.05 10.2 28.05 11.95 28.05 11.95 29.8" fill="#ff0000" fill-rule="evenodd" stroke="none"/>
      <path d="M11.95 29.8 Q11.95 31.55 10.2 31.55 8.45 31.55 8.45 29.8 8.45 28.05 10.2 28.05 11.95 28.05 11.95 29.8 Z" fill="none" stroke="#000000" stroke-linecap="round" stroke-linejoin="round" stroke-width="1.5"/>
      <path d="M13.95 27.15 Q13.95 28.9 12.2 28.9 10.45 28.9 10.45 27.15 10.45 25.4 12.2 25.4 13.95 25.4 13.95 27.15" fill="#ffd400" fill-rule="evenodd" stroke="none"/>
      <path d="M13.95 27.15 Q13.95 28.9 12.2 28.9 10.45 28.9 10.45 27.15 10.45 25.4 12.2 25.4 13.95 25.4 13.95 27.15 Z" fill="none" stroke="#000000" stroke-linecap="round" stroke-linejoin="round" stroke-width="1.5"/>
      <path d="M-0.8 33.4 Q0.95 33.4 0.95 35.15 0.95 36.9 -0.8 36.9 -2.55 36.9 -2.55 35.15 -2.55 33.4 -0.8 33.4" fill="#ff0000" fill-rule="evenodd" stroke="none"/>
      <path d="M-0.8 33.4 Q0.95 33.4 0.95 35.15 0.95 36.9 -0.8 36.9 -2.55 36.9 -2.55 35.15 -2.55 33.4 -0.8 33.4 Z" fill="none" stroke="#000000" stroke-linecap="round" stroke-linejoin="round" stroke-width="1.5"/>
      <path d="M3.95 34.5 Q3.95 36.25 2.2 36.25 0.45 36.25 0.45 34.5 0.45 32.75 2.2 32.75 3.95 32.75 3.95 34.5" fill="#ffd400" fill-rule="evenodd" stroke="none"/>
      <path d="M3.95 34.5 Q3.95 36.25 2.2 36.25 0.45 36.25 0.45 34.5 0.45 32.75 2.2 32.75 3.95 32.75 3.95 34.5 Z" fill="none" stroke="#000000" stroke-linecap="round" stroke-linejoin="round" stroke-width="1.5"/>
      <path d="M-2.7 34.5 Q-2.7 36.25 -4.45 36.25 -6.2 36.25 -6.2 34.5 -6.2 32.75 -4.45 32.75 -2.7 32.75 -2.7 34.5" fill="#009c02" fill-rule="evenodd" stroke="none"/>
      <path d="M-6.2 32.5 Q-6.2 34.25 -7.95 34.25 -9.7 34.25 -9.7 32.5 -9.7 30.75 -7.95 30.75 -6.2 30.75 -6.2 32.5" fill="#ffd400" fill-rule="evenodd" stroke="none"/>
      <path d="M-9.05 30.15 Q-9.05 31.9 -10.8 31.9 -12.55 31.9 -12.55 30.15 -12.55 28.4 -10.8 28.4 -9.05 28.4 -9.05 30.15" fill="#ff0000" fill-rule="evenodd" stroke="none"/>
      <path d="M-14.4 22.05 Q-14.4 23.8 -16.15 23.8 -17.9 23.8 -17.9 22.05 -17.9 20.3 -16.15 20.3 -14.4 20.3 -14.4 22.05" fill="#ffd400" fill-rule="evenodd" stroke="none"/>
      <path d="M-14.4 22.05 Q-14.4 23.8 -16.15 23.8 -17.9 23.8 -17.9 22.05 -17.9 20.3 -16.15 20.3 -14.4 20.3 -14.4 22.05 Z" fill="none" stroke="#000000" stroke-linecap="round" stroke-linejoin="round" stroke-width="1.5"/>
      <path d="M-13.4 23.1 Q-13.4 24.85 -15.15 24.85 -16.9 24.85 -16.9 23.1 -16.9 21.35 -15.15 21.35 -13.4 21.35 -13.4 23.1" fill="#ff0000" fill-rule="evenodd" stroke="none"/>
      <path d="M-13.4 23.1 Q-13.4 24.85 -15.15 24.85 -16.9 24.85 -16.9 23.1 -16.9 21.35 -15.15 21.35 -13.4 21.35 -13.4 23.1 Z" fill="none" stroke="#000000" stroke-linecap="round" stroke-linejoin="round" stroke-width="1.5"/>
      <path d="M-12.25 25.25 Q-12.25 27.0 -14.0 27.0 -15.75 27.0 -15.75 25.25 -15.75 23.5 -14.0 23.5 -12.25 23.5 -12.25 25.25" fill="#ffd400" fill-rule="evenodd" stroke="none"/>
      <path d="M-12.25 25.25 Q-12.25 27.0 -14.0 27.0 -15.75 27.0 -15.75 25.25 -15.75 23.5 -14.0 23.5 -12.25 23.5 -12.25 25.25 Z" fill="none" stroke="#000000" stroke-linecap="round" stroke-linejoin="round" stroke-width="1.5"/>
      <path d="M-14.4 22.05 Q-14.4 23.8 -16.15 23.8 -17.9 23.8 -17.9 22.05 -17.9 20.3 -16.15 20.3 -14.4 20.3 -14.4 22.05" fill="#009c02" fill-rule="evenodd" stroke="none"/>
      <path d="M-13.4 23.1 Q-13.4 24.85 -15.15 24.85 -16.9 24.85 -16.9 23.1 -16.9 21.35 -15.15 21.35 -13.4 21.35 -13.4 23.1" fill="#ff0000" fill-rule="evenodd" stroke="none"/>
      <path d="M-12.25 25.25 Q-12.25 27.0 -14.0 27.0 -15.75 27.0 -15.75 25.25 -15.75 23.5 -14.0 23.5 -12.25 23.5 -12.25 25.25" fill="#ffd400" fill-rule="evenodd" stroke="none"/>
      <path d="M-11.7 27.8 Q-11.7 29.55 -13.45 29.55 -15.2 29.55 -15.2 27.8 -15.2 26.05 -13.45 26.05 -11.7 26.05 -11.7 27.8" fill="#009c02" fill-rule="evenodd" stroke="none"/>
      <path d="M6.65 33.8 Q6.65 35.55 4.9 35.55 3.15 35.55 3.15 33.8 3.15 32.05 4.9 32.05 6.65 32.05 6.65 33.8" fill="#009c02" fill-rule="evenodd" stroke="none"/>
      <path d="M9.65 31.8 Q9.65 33.55 7.9 33.55 6.15 33.55 6.15 31.8 6.15 30.05 7.9 30.05 9.65 30.05 9.65 31.8" fill="#ff0000" fill-rule="evenodd" stroke="none"/>
      <path d="M11.95 29.8 Q11.95 31.55 10.2 31.55 8.45 31.55 8.45 29.8 8.45 28.05 10.2 28.05 11.95 28.05 11.95 29.8" fill="#ffd400" fill-rule="evenodd" stroke="none"/>
      <path d="M16.45 22.8 Q16.45 24.55 14.7 24.55 12.95 24.55 12.95 22.8 12.95 21.05 14.7 21.05 16.45 21.05 16.45 22.8" fill="#ffd400" fill-rule="evenodd" stroke="none"/>
      <path d="M16.45 22.8 Q16.45 24.55 14.7 24.55 12.95 24.55 12.95 22.8 12.95 21.05 14.7 21.05 16.45 21.05 16.45 22.8 Z" fill="none" stroke="#000000" stroke-linecap="round" stroke-linejoin="round" stroke-width="1.5"/>
      <path d="M15.15 24.65 Q15.15 26.4 13.4 26.4 11.65 26.4 11.65 24.65 11.65 22.9 13.4 22.9 15.15 22.9 15.15 24.65" fill="#ff0000" fill-rule="evenodd" stroke="none"/>
      <path d="M15.15 24.65 Q15.15 26.4 13.4 26.4 11.65 26.4 11.65 24.65 11.65 22.9 13.4 22.9 15.15 22.9 15.15 24.65 Z" fill="none" stroke="#000000" stroke-linecap="round" stroke-linejoin="round" stroke-width="1.5"/>
      <path d="M17.45 21.8 Q17.45 23.55 15.7 23.55 13.95 23.55 13.95 21.8 13.95 20.05 15.7 20.05 17.45 20.05 17.45 21.8" fill="#009c02" fill-rule="evenodd" stroke="none"/>
      <path d="M16.45 22.8 Q16.45 24.55 14.7 24.55 12.95 24.55 12.95 22.8 12.95 21.05 14.7 21.05 16.45 21.05 16.45 22.8" fill="#ffd400" fill-rule="evenodd" stroke="none"/>
      <path d="M15.15 24.65 Q15.15 26.4 13.4 26.4 11.65 26.4 11.65 24.65 11.65 22.9 13.4 22.9 15.15 22.9 15.15 24.65" fill="#ff0000" fill-rule="evenodd" stroke="none"/>
      <path d="M13.95 27.15 Q13.95 28.9 12.2 28.9 10.45 28.9 10.45 27.15 10.45 25.4 12.2 25.4 13.95 25.4 13.95 27.15" fill="#009c02" fill-rule="evenodd" stroke="none"/>
      <path d="M-0.8 33.4 Q0.95 33.4 0.95 35.15 0.95 36.9 -0.8 36.9 -2.55 36.9 -2.55 35.15 -2.55 33.4 -0.8 33.4" fill="#ff0000" fill-rule="evenodd" stroke="none"/>
      <path d="M3.95 34.5 Q3.95 36.25 2.2 36.25 0.45 36.25 0.45 34.5 0.45 32.75 2.2 32.75 3.95 32.75 3.95 34.5" fill="#ffd400" fill-rule="evenodd" stroke="none"/>
    </g>
  </defs>
</svg>
